X: 27777
T: Morpeth Lasses, The
R: reel
M: 4/4
K: Eminor
B,|:EFGF B,EE2|FEDA FDDF|EFGF B,EEB|AFDF GEE2:|
edBe dB e2|dBAd FDA2|edBe dB e2|dBdF E2E2|
edBe dB e2|dBAd AFA2|EGFA GBAe|dBdF E2E2||

